X: 1
T: Fly By Night
M: 4/4
L: 1/8
R: hornpipe
K: Amaj
|:(3efg | ae~e2 cAED | CEAc aece | dece BeAe | GeFe E2 (3efg |
ae~e2 cAED | CEAc aece | fdAF Dagf | (3efe (3dcB A2 :|
|: Af | ~f2cB AF~F2 | CFAc fagf | (3efe BA GE~E2 | ^DEGB e2 (3efg |
ae~e2 cAED | CEAc aece | fdAF Dagf | (3efe (3dcB A2 :|
